!! 00040] TT[TB
!!    Plattentitel: We shan hu dang qi cai lian zhuan
!! Zh. Ch. M-2658 (M-80/5315) (Peking LP 31983 (978))
!!!OTL: Ganniu shan
!!!ARE: Asia, China,Shandong, Zibuo
!! Ethnic Group: Han
!! III, 377
!!!SCT: C1143
!!!YEM: Copyright 1995, estate of Helmut Schaffrath.
**kern
*ICvox
*Ivox
*M2/4
*k[b-]
*F:
{16dd
16ff
16dd
16ff
8.cc
16a
=1
16dd
16ff
16dd
16ff
8.cc
16a
=2
16cc
16dd
16ff
16gg
16dd
16ff
8cc
=3
16.cc
32ff
16a
16a
4g}
=4
{8.g
16a
4cc
=5
4cc
8ff
8a
=6
8g
8g
8r
16cc
16a
=7
8.g
16cc
16g
16a
8f}
=8
{8g
8c
16d
16c
8d
=9
16f
16d
8f
8r
16cc
16a
=10
8.g
16a
16g
16f
8d
=11
2c}
=12
{4.cc
8a
=13
16cc
16bn
16cc
16bn
16cc
16bn
16cc
16bn
=14
16cc
16bn
8cc
8r
8cc
=15
8g
8a
8g
8f}
=16
{8g
8c
16d
16c
8d
=17
16f
16d
8f
8r
8cc
=18
8.g
16a
16g
16f
8d
=19
2c}
==
!!!AGN: Xiaodiao
!! Plattenhuelle kopiert
!!    Vorspiel weggelassen.
!!!ONB: ESAC (Essen Associative Code) Database: CHINA_036
!!!AMT: simple duple
!!!AIN: vox
!!!EED: Helmut Schaffrath
!!!EEV: 1.0
*-
